X: 6
T: Monymusk
R: reel
M: 4/4
L: 1/8
K: Amaj
af|e>c (3ccc fcdf|edcA BEGB|edcB Aaga|befg agaf|
edca fcdf|edcA BEGB|edcB Aaga| fdBd cAA||
e|agae cefg|agba gefg|agae cdeg|fdBd cAAe|
(ag)(gf) (fe)(ec)|dfec dcBA|GABd cefa|gbega2|]


Tune 1387	Setting 14752

